X:1
T:Title
%%score { ( 1 3 ) | 2 }
L:1/8
M:3/4
K:F
V:1 treble nm="Grand Piano"
V:3 treble 
V:2 bass 
V:1
 z2 z2[Q:1/4=100] CC | F2 F2 AG | F2 F2 CC | F3 G A[GB] | [Ac]4 [GB][FA] | [EG]2 [EG]2 [GB][FA] | %6
 [EG]2 [EG]2 AA | G3 F [CE][=B,D] | z2 z D EC | F2 F2 AG | F2 F2 CC | F3 G A[GB] | %12
 [Ac]4 [Fd][DFB] | [CEG]2 [CEG]2 [CEc][CEA] | [A,CF]2 [A,CF]2 [DGB][DGB] | %15
 [CFA]3 [A,CF] [B,CG][G,CE] |[M:2/4] [A,CF]4 |[M:1/4] [CFA][CGB] |[M:3/4] [FAc]2 [FAc]2 [FAc]2 | %19
 [CAc]4 [CGB][CFA] | [CGB]2 [CGB]2 [CGB]2 |[M:2/4] [GB]4 |[M:1/4] [FA][EG] |[M:3/4] A2 A2 cc | %24
 [DFB]2 [DFB]2 [Fd][Fd] | [Fc]2 [EB]2 [EG]2 |[M:2/4] [CF]4 |] %27
V:2
 z2 z2 [F,A,][F,A,] | [F,A,C]2 [F,A,C]2 [F,C][F,B,C] | [F,A,C]2 [F,A,C]2 [F,A,][F,A,] | %3
 [F,A,C]3 [F,B,C] [F,CF][F,C] | [F,C]4 [F,C][F,C] | [C,C]2 [C,C]2 [C,C][C,C] | %6
 [C,C]2 [C,C]2 [F,CF][F,CF] | [G,CE]3 [G,D] [G,,G,][G,,F,] | [C,E,]4 [G,B,C][G,B,] | %9
 [F,A,C]2 [F,A,C]2 [F,C][B,C] | [F,A,C]2 [F,A,C]2 [F,A,][F,A,] | [F,A,C]3 [F,B,C] [F,CF][F,C] | %12
 [F,C]4 [B,,B,]B,, | C,2 C,2 C,C, | F,2 F,2 B,,B,, | C,3 C, C,C, |[M:2/4] F,4 |[M:1/4] F,F, | %18
[M:3/4] F,2 A,2 C2 | F,4 F,F, | C,2 E,2 G,2 |[M:2/4] [C,C]4 |[M:1/4] [C,C][C,C] | %23
[M:3/4] [F,CF]2 [F,CF]2 [F,A,F][F,A,F] | B,,2 B,,2 [B,,B,][B,,B,] | [C,A,]2 [B,,G,]2 [C,B,]2 | %26
[M:2/4] [F,A,]4 |] %27
V:3
 x6 | x6 | x6 | x6 | x6 | x6 | x6 | x6 | C4 z2 | x6 | x6 | x6 | x6 | x6 | x6 | x6 |[M:2/4] x4 | %17
[M:1/4] x2 |[M:3/4] x6 | x6 | x6 |[M:2/4] x4 |[M:1/4] x2 |[M:3/4] x6 | x6 | x6 |[M:2/4] x4 |] %27

